X:14
T:Dieu parmi les hommes - E118-1
C:J Akepsimas
M:C|
L:1/4
K:Cm
"Dom"GGGF/G/-|G2E2|FFFE/F/-|F4|GGGF/G/-|G2E2|F4|G3C|
G/G/ G/G/- G/F/ G|=A2A2|B=AGF/G/-|G3D|
F/F/ F/F/- F/E/ D|E2E2|CDEF/G/-|G4||
